svg/SJJB-OpenStreetMapIcons/barrier/stile.svg

<?xml version="1.0" encoding="UTF-8" standalone="no"?>
<!-- Created with Inkscape (http://www.inkscape.org/) -->

<svg
   xmlns:dc="http://purl.org/dc/elements/1.1/"
   xmlns:cc="http://creativecommons.org/ns#"
   xmlns:rdf="http://www.w3.org/1999/02/22-rdf-syntax-ns#"
   xmlns:svg="http://www.w3.org/2000/svg"
   xmlns="http://www.w3.org/2000/svg"
   xmlns:sodipodi="http://sodipodi.sourceforge.net/DTD/sodipodi-0.dtd"
   xmlns:inkscape="http://www.inkscape.org/namespaces/inkscape"
   version="1.0"
   width="580"
   height="580"
   id="svg2"
   sodipodi:version="0.32"
   inkscape:version="0.47 r22583"
   sodipodi:docname="barrier_stile.svg"
   inkscape:output_extension="org.inkscape.output.svg.inkscape">
  <defs
     id="defs22">
    <inkscape:perspective
       sodipodi:type="inkscape:persp3d"
       inkscape:vp_x="0 : 290 : 1"
       inkscape:vp_y="0 : 1000 : 0"
       inkscape:vp_z="580 : 290 : 1"
       inkscape:persp3d-origin="290 : 193.33333 : 1"
       id="perspective24" />
    <marker
       viewBox="0 0 10 10"
       refY="5"
       refX="10"
       orient="auto"
       markerWidth="4"
       markerUnits="strokeWidth"
       markerHeight="3"
       id="ArrowStart">
      <path
         id="path3568"
         d="M 10 0 L 0 5 L 10 10 z" />
    </marker>
    <marker
       viewBox="0 0 10 10"
       refY="5"
       refX="0"
       orient="auto"
       markerWidth="4"
       markerUnits="strokeWidth"
       markerHeight="3"
       id="ArrowEnd">
      <path
         id="path3565"
         d="M 0 0 L 10 5 L 0 10 z" />
    </marker>
    <inkscape:perspective
       id="perspective2683"
       inkscape:persp3d-origin="306.082 : 204.39034 : 1"
       inkscape:vp_z="612.164 : 306.58551 : 1"
       inkscape:vp_y="0 : 1000 : 0"
       inkscape:vp_x="0 : 306.58551 : 1"
       sodipodi:type="inkscape:persp3d" />
    <marker
       viewBox="0 0 10 10"
       refY="5"
       refX="10"
       orient="auto"
       markerWidth="4"
       markerUnits="strokeWidth"
       markerHeight="3"
       id="marker2959">
      <path
         id="path2626"
         d="M 10 0 L 0 5 L 10 10 z" />
    </marker>
    <marker
       viewBox="0 0 10 10"
       refY="5"
       refX="0"
       orient="auto"
       markerWidth="4"
       markerUnits="strokeWidth"
       markerHeight="3"
       id="marker2956">
      <path
         id="path2623"
         d="M 0 0 L 10 5 L 0 10 z" />
    </marker>
    <inkscape:perspective
       id="perspective2953"
       inkscape:persp3d-origin="306.082 : 204.39034 : 1"
       inkscape:vp_z="612.164 : 306.58551 : 1"
       inkscape:vp_y="0 : 1000 : 0"
       inkscape:vp_x="0 : 306.58551 : 1"
       sodipodi:type="inkscape:persp3d" />
    <marker
       viewBox="0 0 10 10"
       refY="5"
       refX="10"
       orient="auto"
       markerWidth="4"
       markerUnits="strokeWidth"
       markerHeight="3"
       id="marker3077">
      <path
         id="path3298"
         d="M 10 0 L 0 5 L 10 10 z" />
    </marker>
    <marker
       viewBox="0 0 10 10"
       refY="5"
       refX="0"
       orient="auto"
       markerWidth="4"
       markerUnits="strokeWidth"
       markerHeight="3"
       id="marker3074">
      <path
         id="path3295"
         d="M 0 0 L 10 5 L 0 10 z" />
    </marker>
    <inkscape:perspective
       id="perspective3071"
       inkscape:persp3d-origin="180.936 : 163.92867 : 1"
       inkscape:vp_z="361.87201 : 245.89301 : 1"
       inkscape:vp_y="0 : 1000 : 0"
       inkscape:vp_x="0 : 245.89301 : 1"
       sodipodi:type="inkscape:persp3d" />
    <inkscape:perspective
       id="perspective3724"
       inkscape:persp3d-origin="0.5 : 0.33333333 : 1"
       inkscape:vp_z="1 : 0.5 : 1"
       inkscape:vp_y="0 : 1000 : 0"
       inkscape:vp_x="0 : 0.5 : 1"
       sodipodi:type="inkscape:persp3d" />
  </defs>
  <metadata
     id="metadata10">
    <rdf:RDF>
      <cc:Work
         rdf:about="">
        <dc:format>image/svg+xml</dc:format>
        <dc:type
           rdf:resource="http://purl.org/dc/dcmitype/StillImage" />
        <cc:license
           rdf:resource="http://web.resource.org/cc/PublicDomain" />
        <dc:language>en</dc:language>
        <dc:title></dc:title>
      </cc:Work>
    </rdf:RDF>
  </metadata>
  <sodipodi:namedview
     inkscape:window-height="708"
     inkscape:window-width="770"
     inkscape:pageshadow="2"
     inkscape:pageopacity="0.0"
     guidetolerance="10.0"
     gridtolerance="10.0"
     objecttolerance="10.0"
     borderopacity="1.0"
     bordercolor="#666666"
     pagecolor="#ffffff"
     id="base"
     showgrid="false"
     inkscape:zoom="0.1767767"
     inkscape:cx="408.45204"
     inkscape:cy="-18.59059"
     inkscape:window-x="271"
     inkscape:window-y="117"
     inkscape:current-layer="svg2"
     inkscape:window-maximized="0" />
  <g
     id="g1327">
    <path
       d="M 66.275,1.768 C 24.94,1.768 1.704,23.139 1.704,66.804 L 1.704,516.927 C 1.704,557.771 22.598,579.156 63.896,579.156 L 515.92,579.156 C 557.227,579.156 578.149,558.84 578.149,516.927 L 578.149,66.804 C 578.149,24.203 557.227,1.768 514.627,1.768 C 514.624,1.768 66.133,1.625 66.275,1.768 z"
       style="fill:#111111;stroke:#eeeeee;stroke-width:3.40799999"
       id="path1329" />
  </g>
  <g
     id="g2319"
     transform="translate(879.29125,36.805119)">
    <path
       id="path2323"
       style="fill:#ffffff;stroke:none"
       d="" />
  </g>
  <g
     id="g2325"
     transform="translate(879.29125,36.805119)">
    <path
       id="path2329"
       style="fill:#ffffff;stroke:none"
       d="" />
  </g>
  <path
     style="font-size:medium;font-style:normal;font-variant:normal;font-weight:normal;font-stretch:normal;text-indent:0;text-align:start;text-decoration:none;line-height:normal;letter-spacing:normal;word-spacing:normal;text-transform:none;direction:ltr;block-progression:tb;writing-mode:lr-tb;text-anchor:start;opacity:0.75;color:#000000;fill:#ffffff;fill-opacity:1;stroke:none;stroke-width:50;marker:none;visibility:visible;display:inline;overflow:visible;enable-background:accumulate;font-family:Bitstream Vera Sans;-inkscape-font-specification:Bitstream Vera Sans"
     d="M 97.6875,138.375 C 92.456765,138.45674 87.300035,140.68383 83.65625,144.4375 C 80.012464,148.19118 77.926326,153.4254 78,158.65625 L 78,178.65625 L 78,187.5 L 68.6875,187.5 C 62.083592,187.4066 55.484286,190.0505 50.78125,194.6875 C 46.078213,199.3245 43.34375,205.89543 43.34375,212.5 C 43.34375,219.10457 46.078213,225.6755 50.78125,230.3125 C 55.484286,234.9495 62.083592,237.5934 68.6875,237.5 L 78,237.5 L 78,313.0625 L 68.6875,313.0625 C 62.083592,312.9691 55.484286,315.613 50.78125,320.25 C 46.078213,324.887 43.34375,331.45793 43.34375,338.0625 C 43.34375,344.66707 46.078213,351.238 50.78125,355.875 C 55.484286,360.512 62.083592,363.1559 68.6875,363.0625 L 78,363.0625 L 78,409.34375 L 78,429.34375 L 78,449.34375 L 118,449.34375 L 118,429.34375 L 118,409.34375 L 118,363.0625 L 212.3125,363.0625 L 212.3125,335 L 212.3125,334 L 212.3125,333 L 387.6875,333 L 387.6875,363.0625 L 474,363.0625 L 474,409.34375 L 474,429.34375 L 474,449.34375 L 514,449.34375 L 514,429.34375 L 514,409.34375 L 514,363.0625 L 520.4375,363.0625 C 527.04141,363.1559 533.64071,360.512 538.34375,355.875 C 543.04679,351.238 545.78125,344.66707 545.78125,338.0625 C 545.78125,331.45793 543.04679,324.887 538.34375,320.25 C 533.64071,315.613 527.04141,312.9691 520.4375,313.0625 L 514,313.0625 L 514,237.5 L 520.4375,237.5 C 527.04141,237.5934 533.64071,234.9495 538.34375,230.3125 C 543.04679,225.6755 545.78125,219.10457 545.78125,212.5 C 545.78125,205.89543 543.04679,199.3245 538.34375,194.6875 C 533.64071,190.0505 527.04141,187.4066 520.4375,187.5 L 514,187.5 L 514,178.65625 L 514,158.65625 C 514.07514,153.32123 511.9007,147.98864 508.125,144.21875 C 504.3493,140.44885 499.02239,138.29164 493.6875,138.375 C 488.45677,138.45674 483.30004,140.68383 479.65625,144.4375 C 476.01247,148.19118 473.92633,153.4254 474,158.65625 L 474,178.65625 L 474,187.5 L 118,187.5 L 118,178.65625 L 118,158.65625 C 118.07514,153.32123 115.9007,147.98864 112.125,144.21875 C 108.3493,140.44885 103.02239,138.29164 97.6875,138.375 z M 118,237.5 L 474,237.5 L 474,313.0625 L 118,313.0625 L 118,237.5 z"
     id="path2900"
     sodipodi:nodetypes="csccccsssccccsssccccccccccccccccccccccccsssccccsssccccsssccccccscccccc" />
  <path
     style="fill:none;stroke:#ffffff;stroke-width:50;stroke-linecap:square;stroke-linejoin:miter;stroke-miterlimit:4;stroke-opacity:1;stroke-dasharray:none"
     d="M 232,468 L 372,468"
     id="path4403" />
  <path
     id="path4405"
     d="M 240.31579,386 L 359.68421,386"
     style="fill:none;stroke:#ffffff;stroke-width:50;stroke-linecap:butt;stroke-linejoin:miter;stroke-miterlimit:4;stroke-opacity:1;stroke-dasharray:none" />
</svg>

<svg xmlns="http://www.w3.org/2000/svg" viewBox="0 0 580 580"><path d="m66.28 1.768c-41.34 0-64.57 21.371-64.57 65.04v450.12c0 40.844 20.894 62.23 62.19 62.23h452.02c41.31 0 62.23-20.316 62.23-62.23v-450.12c0-42.601-20.922-65.04-63.52-65.04-.003 0-448.49-.143-448.35 0z" fill="#111" stroke="#eee" stroke-width="3.408"/><path d="m97.69 138.37c-5.231.082-10.387 2.309-14.03 6.06-3.644 3.754-5.73 8.988-5.656 14.219v20 8.844h-9.313c-6.604-.093-13.203 2.55-17.906 7.188-4.703 4.637-7.438 11.208-7.438 17.813 0 6.605 2.734 13.175 7.438 17.813 4.703 4.637 11.302 7.281 17.906 7.188h9.313v75.56h-9.313c-6.604-.093-13.203 2.55-17.906 7.188-4.703 4.637-7.438 11.208-7.438 17.813 0 6.605 2.734 13.175 7.438 17.813 4.703 4.637 11.302 7.281 17.906 7.188h9.313v46.28 20 20h40v-20-20-46.28h94.31v-28.06-1-1h175.37v30.06h86.31v46.28 20 20h40v-20-20-46.28h6.438c6.604.093 13.203-2.55 17.906-7.188 4.703-4.637 7.438-11.208 7.438-17.813 0-6.605-2.734-13.175-7.438-17.813-4.703-4.637-11.302-7.281-17.906-7.188h-6.438v-75.56h6.438c6.604.093 13.203-2.55 17.906-7.188 4.703-4.637 7.438-11.208 7.438-17.813 0-6.605-2.734-13.175-7.438-17.813-4.703-4.637-11.302-7.281-17.906-7.188h-6.438v-8.844-20c.075-5.335-2.099-10.668-5.875-14.438-3.776-3.77-9.103-5.927-14.438-5.844-5.231.082-10.387 2.309-14.03 6.06-3.644 3.754-5.73 8.988-5.656 14.219v20 8.844h-356v-8.844-20c.075-5.335-2.099-10.668-5.875-14.438-3.776-3.77-9.103-5.927-14.438-5.844m20.313 99.12h356v75.56h-356v-75.56" opacity=".75" color="#000" fill="#fff"/><g fill="none" stroke="#fff" stroke-width="50"><path d="m232 468h140" stroke-linecap="square"/><path d="m240.32 386h119.37"/></g></svg>
